X: 21812
T: FANCY CLOG HORNPIPE
R: hornpipe, reel
B: K\"ohler's Violin Repository, v.2, 1885 p.181 #2
F: http://www.archive.org/details/klersviolinrepos02rugg
Z: 2012 John Chambers <jc:trillian.mit.edu>
M: C|
L: 1/8
K: F
u((3cde) |\
fcAc FcAc | GcAc FcAc | fcAc FcAc | Gg(gf) (gb)ag |
fcAc FcAc | GcAc FcAc | {g}fefa gfeg | fcag f2 :||: uA2 |
{e}d^cde {g}fefg | (ag)ab (ag)fe | {e}d^cde {g}fef^f | gA{c}BA {c}BA{c}BA |
{e}d^cde {g}fefg | (ag)ab (ag)fe | (fa)gf (eg)fe | dAfe d2 :|

%%sep 2 1 500

